Adwaita++-Light/panel/24/gpmdp-tray-pause.svg

<svg height="24" width="24" xmlns="http://www.w3.org/2000/svg">
  <path d="m16.999853 15v6h2v-6zm3 0v6h2v-6zm-14.1678218-10.9997408c-.2105737.00455-.393835.080379-.53125.2167969-.1952.191-.3007812.5002006-.3007812.9003906v13.7597653c0 .40016.1145814.709411.3007812.900391.28372.28193.7270619.307932 1.2324219.0078l3.5878909-2.091785 7.763672-4.523437a6 6 0 0 0 .08594-.585937 6 6 0 0 1 -.08594.585937l.476562-.277344c.85117-.49111.85117-1.290815 0-1.791015l-.478516-.279297c-.54756-2.7493575-2.972238-4.8222658-5.882812-4.8222658-.65436 0-1.28424.106345-1.873047.3007812l-3.5937499-2.0937499c-.25269-.1455151-.490598-.2115794-.7011719-.2070313zm3.6582032 2.5566406c-.063644.029542-.125087.062062-.1875.09375.062375-.031654.1238917-.064235.1875-.09375zm-.6074219.328125c-.071257.043706-.1416758.088212-.2109375.1347656.069334-.046571.139603-.091049.2109375-.1347656zm3.1171875.1152344c2.773606 0 5 2.2266828 5 4.9999998.000025.18825-.03354.373712-.05469.560547l-6.896482 4.015625c-.128264-.055555-.2614975-.099849-.3847655-.166016l-.021484-.01172-.023437-.01172c-.018751-.0089-.015315-.0025-.033203-.0098-.011032-.0088-.039139-.03097-.1542969-.09961h-.00195c-.074437-.04408-.1486541-.09079-.2207031-.138672l-.00781-.0059c-.08764-.05976-.1665977-.116865-.2402344-.173828l-.00195-.002c-.0781832-.060867-.1541229-.123748-.2285253-.189328h-.00195c-.1012522-.089007-.1708407-.147178-.2070344-.18164l-.00195-.002-.00195-.002-.00977-.01172-.013672-.01367c-.1189405-.116865-.2312485-.238744-.3378924-.367095-.037439-.04504-.088765-.114087-.15625-.205078l-.00195-.0039-.00195-.002c-.06382-.08453-.125298-.17123-.1836-.259725l-.00195-.0039c-.0532254-.081932-.1023554-.159954-.1464875-.236334l-.00391-.0078c-.050824-.09094-.09752-.181484-.1425744-.275404l-.00195-.0039-.00195-.0039c-.056889-.115998-.09754-.192712-.1152406-.234387v-.0019c-.0700669-.168055-.1322512-.339091-.1835937-.513725v-.0039-.002c-.010058-.03362-.027876-.102872-.054688-.208984-.032985-.13066-.059706-.263586-.082031-.396484-.01586-.09472-.028763-.16606-.035156-.21875v-.0039-.0059c-.026085-.19872-.040906-.397233-.042969-.597652.00183-.116593.0076-.233426.017578-.349609v-.0078l.00195-.0059c.00742-.103539.018032-.211356.033203-.322266v-.002h.00195c.00619-.04658.012026-.09424.019531-.140625v-.0039c.021451-.128216.047982-.253205.078125-.375.00638-.02425.012785-.04812.019531-.07227l.00195-.0059.00195-.0059c.037378-.139908.079066-.275718.1269666-.408063v-.002c.0004834-.0013.00147-.0026.00195-.0039.00414-.01113.00945-.0221.013672-.0332v-.0039l.00195-.002c.052474-.140631.1093602-.27776.1738342-.412108l.00391-.0059v-.0019c.00567-.01144.011822-.0218.017578-.0332l.00195-.0039.00195-.0039c.063681-.128915.1337284-.256657.208987-.380854.01287-.02126.025876-.04143.039063-.0625.0853064-.135887.1721693-.264576.2656245-.386591.1019464-.1329847.2063829-.255397.3144531-.3710938l.00391-.00391.00977-.00977c.914875-.9726409 2.1980378-1.58007 3.6386638-1.58007zm-3.6914062.2851562c-.061573.048414-.1239804.095759-.1835938.1464844.059715-.050802.121914-.09801.1835938-.1464844zm9.6601562 4.1054686c.0206.200236.03125.403597.03125.609375 0-.20579-.01102-.408917-.03125-.609375zm-11.96875.609375a6 6 0 0 0 .021484.378906 6 6 0 0 1 -.021484-.378906zm.2558594 1.71875a6 6 0 0 0 .1015625.289062 6 6 0 0 1 -.1015625-.289062zm2.9355468 3.572266a6 6 0 0 0 .4511719.214843 6 6 0 0 1 -.4511719-.214843zm5.8085938-5.291016a3 3 0 0 1 -3 3 3 3 0 0 1 -3.0000004-3 3 3 0 0 1 3.0000004-3 3 3 0 0 1 3 3z" fill="#444"/>
</svg>

<svg xmlns="http://www.w3.org/2000/svg" width="24" height="24" version="1.1">
 <defs>
  <style id="current-color-scheme" type="text/css">
   .ColorScheme-Text { color:#444444; } .ColorScheme-Highlight { color:#4285f4; }
  </style>
 </defs>
 <path style="fill:currentColor" class="ColorScheme-Text" d="m 16.999853,15 0,6 2,0 0,-6 -2,0 z m 3,0 0,6 2,0 0,-6 -2,0 z M 5.8320312,4.0002592 c -0.2105737,0.00455 -0.393835,0.080379 -0.53125,0.2167969 C 5.1055812,4.4080561 5,4.7172567 5,5.1174467 L 5,18.877212 c 0,0.40016 0.1145814,0.709411 0.3007812,0.900391 0.28372,0.28193 0.7270619,0.307932 1.2324219,0.0078 l 3.5878909,-2.091785 7.763672,-4.523437 a 6,6 0 0 0 0.08594,-0.585937 6,6 0 0 1 -0.08594,0.585937 l 0.476562,-0.277344 c 0.85117,-0.49111 0.85117,-1.290815 0,-1.791015 L 17.882812,10.822525 C 17.335252,8.0731675 14.910574,6.0002592 12,6.0002592 c -0.65436,0 -1.28424,0.106345 -1.873047,0.3007812 L 6.5332031,4.2072905 C 6.2805131,4.0617754 6.0426051,3.9957111 5.8320312,4.0002592 Z m 3.6582032,2.5566406 c -0.063644,0.029542 -0.125087,0.062062 -0.1875,0.09375 0.062375,-0.031654 0.1238917,-0.064235 0.1875,-0.09375 z M 8.8828125,6.8850248 C 8.8115555,6.9287308 8.7411367,6.9732368 8.671875,7.0197904 8.741209,6.9732194 8.811478,6.9287414 8.8828125,6.8850248 Z M 12,7.0002592 c 2.773606,0 5,2.2266828 5,4.9999998 2.5e-5,0.18825 -0.03354,0.373712 -0.05469,0.560547 l -6.896482,4.015625 C 9.920564,16.520876 9.7873305,16.476582 9.6640625,16.410415 l -0.021484,-0.01172 -0.023437,-0.01172 c -0.018751,-0.0089 -0.015315,-0.0025 -0.033203,-0.0098 -0.011032,-0.0088 -0.039139,-0.03097 -0.1542969,-0.09961 l -0.00195,0 c -0.074437,-0.04408 -0.1486541,-0.09079 -0.2207031,-0.138672 l -0.00781,-0.0059 c -0.08764,-0.05976 -0.1665977,-0.116865 -0.2402344,-0.173828 l -0.00195,-0.002 C 8.8808109,15.896298 8.8048712,15.833417 8.7304688,15.767837 l -0.00195,0 C 8.6272666,15.67883 8.5576781,15.620659 8.5214844,15.586197 l -0.00195,-0.002 -0.00195,-0.002 -0.00977,-0.01172 -0.013672,-0.01367 C 8.3752019,15.439942 8.2628939,15.318063 8.15625,15.189712 8.118811,15.144672 8.067485,15.075625 8,14.984634 l -0.00195,-0.0039 -0.00195,-0.002 C 7.93228,14.894204 7.870802,14.807504 7.8125,14.719009 l -0.00195,-0.0039 C 7.7573246,14.633177 7.7081946,14.555155 7.6640625,14.478775 l -0.00391,-0.0078 c -0.050824,-0.09094 -0.09752,-0.181484 -0.1425744,-0.275404 l -0.00195,-0.0039 -0.00195,-0.0039 c -0.056889,-0.115998 -0.09754,-0.192712 -0.1152406,-0.234387 l 0,-0.0019 C 7.3283706,13.783429 7.2661863,13.612393 7.2148438,13.437759 l 0,-0.0039 0,-0.002 c -0.010058,-0.03362 -0.027876,-0.102872 -0.054688,-0.208984 -0.032985,-0.13066 -0.059706,-0.263586 -0.082031,-0.396484 -0.01586,-0.09472 -0.028763,-0.16606 -0.035156,-0.21875 l 0,-0.0039 0,-0.0059 c -0.026085,-0.19872 -0.040906,-0.397233 -0.042969,-0.597652 0.00183,-0.116593 0.0076,-0.233426 0.017578,-0.349609 l 0,-0.0078 0.00195,-0.0059 c 0.00742,-0.103539 0.018032,-0.211356 0.033203,-0.322266 l 0,-0.002 0.00195,0 c 0.00619,-0.04658 0.012026,-0.09424 0.019531,-0.140625 l 0,-0.0039 c 0.021451,-0.128216 0.047982,-0.253205 0.078125,-0.375 0.00638,-0.02425 0.012785,-0.04812 0.019531,-0.07227 l 0.00195,-0.0059 0.00195,-0.0059 c 0.037378,-0.139908 0.079066,-0.275718 0.1269666,-0.408063 l 0,-0.002 c 4.834e-4,-0.0013 0.00147,-0.0026 0.00195,-0.0039 0.00414,-0.01113 0.00945,-0.0221 0.013672,-0.0332 l 0,-0.0039 0.00195,-0.002 c 0.052474,-0.140631 0.1093602,-0.27776 0.1738342,-0.412108 l 0.00391,-0.0059 0,-0.0019 c 0.00567,-0.01144 0.011822,-0.0218 0.017578,-0.0332 l 0.00195,-0.0039 0.00195,-0.0039 c 0.063681,-0.128915 0.1337284,-0.256657 0.208987,-0.380854 0.01287,-0.02126 0.025876,-0.04143 0.039063,-0.0625 C 7.852885,9.215807 7.9397479,9.087118 8.0332031,8.965103 8.1351495,8.8321183 8.239586,8.709706 8.3476562,8.5940092 l 0.00391,-0.00391 0.00977,-0.00977 C 9.2762112,7.6076883 10.559374,7.0002592 12,7.0002592 Z M 8.3085938,7.2854154 C 8.2470208,7.3338294 8.1846134,7.3811744 8.125,7.4318998 8.184715,7.3810978 8.246914,7.3338898 8.3085938,7.2854154 Z M 17.96875,11.390884 C 17.98935,11.59112 18,11.794481 18,12.000259 18,11.794469 17.98898,11.591342 17.96875,11.390884 Z M 6,12.000259 A 6,6 0 0 0 6.021484,12.379165 6,6 0 0 1 6,12.000259 Z m 0.2558594,1.71875 a 6,6 0 0 0 0.1015625,0.289062 6,6 0 0 1 -0.1015625,-0.289062 z m 2.9355468,3.572266 A 6,6 0 0 0 9.6425781,17.506118 6,6 0 0 1 9.1914062,17.291275 Z M 15,12.000259 a 3,3 0 0 1 -3,3 3,3 0 0 1 -3.0000004,-3 3,3 0 0 1 3.0000004,-3 3,3 0 0 1 3,3 z"/>
</svg>
